flaticon/office/archive.svg

<svg xmlns="http://www.w3.org/2000/svg" width="32" height="32" viewBox="0 0 24 24">
    <path d="M 23.992188 22.320312 L 19.996094 0.324219 C 19.953125 0.125 19.714844 -0.0351562 19.515625 0.0078125 L 13.585938 1.101562 C 13.546875 0.921875 13.398438 0.804688 13.195312 0.804688 L 0.398438 0.804688 C 0.160156 0.804688 0 0.964844 0 1.207031 L 0 23.601562 C 0 23.839844 0.160156 24 0.398438 24 L 13.195312 24 C 13.4375 24 13.597656 23.839844 13.597656 23.601562 L 13.597656 5.472656 L 16.796875 23.679688 C 16.796875 23.761719 16.875 23.839844 16.957031 23.921875 C 17.035156 23.960938 17.117188 24 17.195312 24 C 17.234375 24 17.234375 24 17.277344 24 L 23.675781 22.800781 C 23.875 22.761719 24.035156 22.519531 23.992188 22.320312 Z M 0.800781 1.605469 L 6.398438 1.605469 L 6.398438 23.199219 L 0.800781 23.199219 Z M 12.796875 23.199219 L 7.199219 23.199219 L 7.199219 1.605469 L 12.796875 1.605469 Z M 17.515625 23.121094 L 13.757812 1.84375 L 19.273438 0.886719 L 23.113281 22.082031 Z M 17.515625 23.121094"/>
    <path d="M5.199219 3.605469L2 3.605469C1.757812 3.605469 1.601562 3.765625 1.601562 4.003906L1.601562 10.402344C1.601562 10.644531 1.757812 10.804688 2 10.804688L5.199219 10.804688C5.4375 10.804688 5.597656 10.644531 5.597656 10.402344L5.597656 4.003906C5.597656 3.765625 5.4375 3.605469 5.199219 3.605469zM2.398438 6.003906L4.796875 6.003906 4.796875 6.804688 2.398438 6.804688zM2.398438 7.605469L4.796875 7.605469 4.796875 8.402344 2.398438 8.402344zM4.796875 4.40625L4.796875 5.203125 2.398438 5.203125 2.398438 4.40625zM2.398438 10.003906L2.398438 9.203125 4.796875 9.203125 4.796875 10.003906zM3.597656 18.402344C2.480469 18.402344 1.597656 19.28125 1.597656 20.402344 1.597656 21.519531 2.480469 22.402344 3.597656 22.402344 4.71875 22.402344 5.597656 21.519531 5.597656 20.402344 5.597656 19.28125 4.71875 18.402344 3.597656 18.402344zM3.597656 21.601562C2.917969 21.601562 2.398438 21.082031 2.398438 20.402344 2.398438 19.722656 2.917969 19.203125 3.597656 19.203125 4.277344 19.203125 4.796875 19.722656 4.796875 20.402344 4.796875 21.082031 4.277344 21.601562 3.597656 21.601562zM8.398438 10.804688L11.597656 10.804688C11.835938 10.804688 11.996094 10.644531 11.996094 10.402344L11.996094 4.003906C11.996094 3.765625 11.835938 3.605469 11.597656 3.605469L8.398438 3.605469C8.15625 3.605469 7.996094 3.765625 7.996094 4.003906L7.996094 10.402344C7.996094 10.644531 8.15625 10.804688 8.398438 10.804688zM11.195312 8.402344L8.796875 8.402344 8.796875 7.605469 11.195312 7.605469zM11.195312 6.804688L8.796875 6.804688 8.796875 6.003906 11.195312 6.003906zM8.796875 10.003906L8.796875 9.203125 11.195312 9.203125 11.195312 10.003906zM11.195312 4.40625L11.195312 5.203125 8.796875 5.203125 8.796875 4.40625zM9.996094 22.398438C11.117188 22.398438 11.996094 21.519531 11.996094 20.402344 11.996094 19.28125 11.117188 18.402344 9.996094 18.402344 8.878906 18.402344 7.996094 19.28125 7.996094 20.402344 7.996094 21.519531 8.878906 22.398438 9.996094 22.398438zM9.996094 19.203125C10.675781 19.203125 11.195312 19.722656 11.195312 20.402344 11.195312 21.082031 10.675781 21.601562 9.996094 21.601562 9.316406 21.601562 8.796875 21.082031 8.796875 20.402344 8.796875 19.722656 9.316406 19.203125 9.996094 19.203125zM19.199219 5.027344C19.203125 4.992188 19.203125 4.957031 19.195312 4.925781 19.191406 4.898438 19.179688 4.871094 19.167969 4.847656L18.914062 3.367188C18.875 3.164062 18.636719 3.003906 18.433594 3.046875L15.277344 3.605469C15.195312 3.605469 15.117188 3.726562 15.035156 3.804688 14.957031 3.886719 14.957031 3.964844 14.957031 4.085938L15.511719 7.195312C15.511719 7.210938 15.511719 7.226562 15.515625 7.246094 15.519531 7.257812 15.523438 7.273438 15.527344 7.289062L15.789062 8.765625C15.792969 8.777344 15.792969 8.789062 15.796875 8.804688 15.796875 8.8125 15.800781 8.824219 15.800781 8.832031L16.074219 10.363281C16.117188 10.5625 16.277344 10.683594 16.476562 10.683594 16.476562 10.683594 16.515625 10.683594 16.515625 10.722656L19.675781 10.164062C19.875 10.125 20.035156 9.882812 19.996094 9.683594L19.75 8.242188C19.761719 8.191406 19.765625 8.136719 19.753906 8.085938 19.746094 8.039062 19.726562 7.996094 19.699219 7.957031L19.476562 6.648438C19.484375 6.605469 19.484375 6.5625 19.476562 6.523438 19.46875 6.492188 19.457031 6.457031 19.4375 6.425781zM18.609375 6.273438L16.246094 6.691406 16.109375 5.894531 18.46875 5.476562zM16.382812 7.460938L18.746094 7.070312 18.878906 7.835938 16.519531 8.253906zM18.195312 3.886719L18.332031 4.671875 15.96875 5.089844 15.835938 4.324219zM16.796875 9.84375L16.660156 9.054688 19.015625 8.636719 19.15625 9.445312zM19.476562 17.921875C18.355469 18.121094 17.636719 19.160156 17.835938 20.242188 17.996094 21.199219 18.835938 21.878906 19.792969 21.878906 19.875 21.878906 19.996094 21.839844 20.195312 21.839844 20.714844 21.71875 21.15625 21.441406 21.472656 21 21.753906 20.5625 21.875 20.042969 21.792969 19.519531 21.675781 19 21.394531 18.5625 20.953125 18.242188 20.515625 17.960938 19.996094 17.839844 19.476562 17.921875zM20.515625 18.882812C20.753906 19.042969 20.953125 19.320312 20.996094 19.640625 21.035156 19.921875 20.996094 20.242188 20.792969 20.519531 20.632812 20.761719 20.355469 20.960938 20.035156 21 19.355469 21.121094 18.753906 20.679688 18.636719 20.039062 18.59375 19.761719 18.636719 19.441406 18.835938 19.160156 18.996094 18.921875 19.273438 18.722656 19.59375 18.679688 19.636719 18.679688 19.714844 18.679688 19.792969 18.679688 20.035156 18.679688 20.273438 18.722656 20.515625 18.882812zM20.515625 18.882812"/>
</svg>

<svg xmlns="http://www.w3.org/2000/svg" width="32" height="32" viewBox="0 0 24 24">
    <path d="M23.992 22.32L19.996.324c-.043-.199-.281-.36-.48-.316l-5.93 1.094c-.04-.18-.188-.297-.39-.297H.397C.16.805 0 .965 0 1.207v22.395c0 .238.16.398.398.398h12.797c.242 0 .403-.16.403-.398V5.472l3.199 18.208c0 .082.078.16.16.242a.57.57 0 0 0 .238.078h.082l6.399-1.2c.199-.038.36-.28.316-.48zM.801 1.605h5.597V23.2H.801zM12.797 23.2H7.199V1.605h5.598zm4.719-.078L13.758 1.844l5.515-.957 3.84 21.195zm0 0"/>
    <path d="M5.2 3.605H2c-.242 0-.398.16-.398.399v6.398c0 .243.156.403.398.403h3.2c.237 0 .398-.16.398-.403V4.004c0-.238-.16-.399-.399-.399zM2.397 6.004h2.399v.8H2.398zm0 1.601h2.399v.797H2.398zm2.399-3.199v.797H2.398v-.797zm-2.399 5.598v-.8h2.399v.8zm0 0M3.598 18.402c-1.118 0-2 .88-2 2 0 1.118.882 2 2 2 1.12 0 2-.882 2-2 0-1.12-.88-2-2-2zm0 3.2c-.68 0-1.2-.52-1.2-1.2 0-.68.52-1.199 1.2-1.199.68 0 1.199.52 1.199 1.2 0 .679-.52 1.199-1.2 1.199zm0 0M8.398 10.805h3.2c.238 0 .398-.16.398-.403V4.004c0-.238-.16-.399-.398-.399h-3.2c-.242 0-.402.16-.402.399v6.398c0 .243.16.403.402.403zm2.797-2.403H8.797v-.797h2.398zm0-1.597H8.797v-.801h2.398zm-2.398 3.199v-.8h2.398v.8zm2.398-5.598v.797H8.797v-.797zm0 0M9.996 22.398c1.121 0 2-.878 2-1.996 0-1.12-.879-2-2-2-1.117 0-2 .88-2 2a1.98 1.98 0 0 0 2 1.996zm0-3.195c.68 0 1.2.52 1.2 1.2 0 .679-.52 1.199-1.2 1.199-.68 0-1.2-.52-1.2-1.2 0-.68.52-1.199 1.2-1.199zm0 0M19.2 5.027a.292.292 0 0 0-.005-.101.265.265 0 0 0-.027-.078l-.254-1.48a.431.431 0 0 0-.48-.321l-3.157.558c-.082 0-.16.122-.242.2-.078.082-.078.16-.078.28l.555 3.11c0 .016 0 .032.004.051a.64.64 0 0 1 .011.043l.262 1.477c.004.011.004.023.008.039 0 .008.004.02.004.027l.273 1.531c.043.2.203.32.403.32 0 0 .039 0 .039.04l3.16-.559c.199-.039.36-.281.32-.48l-.246-1.442a.352.352 0 0 0-.05-.285l-.223-1.309a.336.336 0 0 0 0-.125.34.34 0 0 0-.04-.097zm-.59 1.246l-2.364.418-.137-.796 2.36-.418zm-2.227 1.188l2.363-.39.133.765-2.36.418zm1.812-3.574l.137.785-2.363.418-.133-.766zm-1.398 5.957l-.137-.79 2.356-.417.14.808zm0 0M19.477 17.922c-1.122.2-1.84 1.238-1.641 2.32.16.957 1 1.637 1.957 1.637.082 0 .203-.04.402-.04.52-.12.961-.398 1.278-.839.28-.438.402-.957.32-1.48a2.12 2.12 0 0 0-.84-1.278 2.113 2.113 0 0 0-1.476-.32zm1.039.96c.238.161.437.438.48.759.04.28 0 .601-.203.879a1.09 1.09 0 0 1-.758.48 1.191 1.191 0 0 1-1.398-.96c-.043-.278 0-.599.199-.88.16-.238.437-.437.758-.48h.199c.242 0 .48.043.723.203zm0 0"/>
</svg>
